Optical/Nordea.svg

<?xml version="1.0" encoding="UTF-8"?>
<svg width="76px" height="48px" viewBox="0 0 76 48" version="1.1" xmlns="http://www.w3.org/2000/svg" xmlns:xlink="http://www.w3.org/1999/xlink">
    <!-- Generator: Sketch 52.3 (67297) - http://www.bohemiancoding.com/sketch -->
    <title>Optical/Nordea</title>
    <desc>Created with Sketch.</desc>
    <g id="Optical/Nordea" stroke="none" stroke-width="1" fill="none" fill-rule="evenodd">
        <path d="M69.3424545,20.4245614 C72.9773413,20.1438596 76.108936,22.8947368 75.9970933,26.8245614 L75.9970933,32.7754386 L73.5924759,32.7754386 L73.5924759,30.922807 C72.8095773,32.2701754 71.0760159,32.9438596 69.7898252,32.9438596 C66.2108598,32.9438596 63.3588718,29.9122807 63.5825571,26.2631579 C63.8062424,23.1754386 66.2667811,20.6491228 69.3424545,20.4245614 Z M73.4247119,26.8245614 L73.4247119,26.4315789 C73.3128693,24.522807 71.7470719,23.0070175 69.8457465,23.0070175 C67.7207358,23.0070175 66.0430958,24.8596491 66.2667811,27.0491228 C66.4904665,28.677193 67.7766572,29.9684211 69.3983759,30.1929825 C71.5233866,30.4736842 73.3128693,28.9017544 73.4247119,26.8245614 Z M56.1450196,20.4245614 C60.1154344,20.3122807 62.2404451,23.5684211 62.5200518,26.0385965 L53.1811889,28.6210526 C53.7963236,29.7438596 55.362121,30.8105263 57.039761,30.4736842 C58.214109,30.2491228 59.2766144,29.4070175 59.723985,28.3964912 L62.1286024,29.1263158 C61.1779397,31.5403509 58.7733224,33 56.3127836,33 C52.7897396,33 50.0495942,30.1368421 50.0495942,26.7684211 C50.0495942,23.0631579 52.8456609,20.5368421 56.1450196,20.4245614 Z M52.6778969,26.3754386 L59.4443784,24.522807 C58.717401,23.1754386 57.039761,22.2210526 55.1384356,22.9508772 C53.4607956,23.5684211 52.6778969,25.0842105 52.6778969,26.3754386 Z M35.62189,22.9508772 C33.7205646,23.0631579 32.1547672,24.1298246 32.1547672,26.8245614 C32.1547672,29.0701754 32.1547672,29.0140351 32.1547672,32.7192982 L29.4146218,32.7192982 L29.4146218,26.4877193 L29.4146218,20.7614035 L32.0988459,20.7614035 L32.0988459,22.1649123 C32.4902952,21.5473684 33.2731939,20.3684211 35.62189,20.3684211 L35.62189,22.9508772 Z M10.9605815,27.9473684 L10.9605815,18.2912281 L13.7007269,18.2912281 L13.7007269,32.7754386 L11.1842669,32.7754386 L2.90790938,23.0631579 L2.90790938,32.7192982 L-1.91846539e-13,32.7192982 L-1.91846539e-13,18.2912281 L2.79606672,18.2912281 L10.9605815,27.9473684 Z M48.4278755,17 L48.3719542,26.5438596 C48.3719542,26.6 48.3719542,26.6 48.3719542,26.6561404 C48.3719542,26.7122807 48.3719542,26.7122807 48.3719542,26.7684211 L48.3719542,32.7192982 L45.9673368,32.7192982 L45.9673368,31.1473684 C45.3522021,32.3263158 43.5067981,32.9438596 42.1646861,32.9438596 C38.5857207,32.9438596 35.7337326,29.9122807 35.957418,26.2631579 C36.1811033,23.1754386 38.641642,20.6491228 41.7173154,20.4245614 C43.3390341,20.2561404 45.2403595,20.9298246 45.8554941,21.7157895 L45.8554941,17 L48.4278755,17 Z M45.7436515,26.8245614 C45.7436515,26.8245614 45.7436515,26.4315789 45.7436515,26.4315789 C45.6318088,24.522807 44.0660114,23.0070175 42.1646861,23.0070175 C40.0396754,23.0070175 38.3620353,24.8596491 38.5857207,27.0491228 C38.809406,28.677193 40.0955967,29.9684211 41.7173154,30.1929825 C43.8423261,30.4736842 45.6318088,28.9017544 45.7436515,26.8245614 Z M21.585635,20.3684211 C24.9968364,20.3684211 27.7929031,23.1754386 27.8488245,26.6561404 C27.8488245,30.1368421 25.0527578,32.9438596 21.585635,32.9438596 C18.1185123,32.9438596 15.3224456,30.1368421 15.3224456,26.6561404 C15.3224456,23.1754386 18.1185123,20.3684211 21.585635,20.3684211 Z M21.585635,30.2491228 C23.5428817,30.2491228 25.1646004,28.677193 25.1646004,26.6561404 C25.1646004,24.6912281 23.5428817,23.0631579 21.585635,23.0631579 C19.6283883,23.0631579 18.0066696,24.6912281 18.0066696,26.6561404 C18.0066696,28.6210526 19.6283883,30.2491228 21.585635,30.2491228 Z" id="Cropped/Nordea" fill="#0000A0" fill-rule="nonzero"></path>
    </g>
</svg>

<svg width="76" height="48" xmlns="http://www.w3.org/2000/svg"><path d="M69.342 20.425c3.635-.281 6.767 2.47 6.655 6.4v5.95h-2.405v-1.852c-.782 1.347-2.516 2.02-3.802 2.02-3.58 0-6.431-3.03-6.207-6.68.223-3.088 2.684-5.614 5.76-5.838zm4.083 6.4v-.393c-.112-1.91-1.678-3.425-3.58-3.425-2.124 0-3.802 1.853-3.578 4.042a3.685 3.685 0 0 0 3.131 3.144c2.125.28 3.915-1.291 4.027-3.368zm-17.28-6.4c3.97-.113 6.095 3.143 6.375 5.614l-9.339 2.582c.615 1.123 2.181 2.19 3.859 1.853 1.174-.225 2.237-1.067 2.684-2.078l2.405.73C61.178 31.54 58.773 33 56.313 33a6.253 6.253 0 0 1-6.263-6.232c0-3.705 2.796-6.231 6.095-6.343zm-3.467 5.95l6.766-1.852c-.727-1.348-2.404-2.302-4.306-1.572-1.677.617-2.46 2.133-2.46 3.424zm-17.056-3.424c-1.901.112-3.467 1.179-3.467 3.874v5.894h-2.74V20.761h2.684v1.404c.391-.618 1.174-1.797 3.523-1.797v2.583zM10.96 27.947v-9.656h2.74v14.484h-2.517l-8.276-9.712v9.656H0V18.291h2.796l8.165 9.656zM48.428 17l-.056 9.544v6.175h-2.405v-1.572c-.615 1.18-2.46 1.797-3.802 1.797-3.58 0-6.431-3.032-6.208-6.68.224-3.089 2.685-5.615 5.76-5.84 1.622-.168 3.523.506 4.138 1.292V17h2.573zm-2.684 9.825v-.393c-.112-1.91-1.678-3.425-3.58-3.425-2.124 0-3.802 1.853-3.578 4.042a3.685 3.685 0 0 0 3.131 3.144c2.125.28 3.915-1.291 4.027-3.368zm-24.158-6.457c3.41 0 6.207 2.807 6.263 6.288 0 3.48-2.796 6.288-6.263 6.288s-6.264-2.807-6.264-6.288c0-3.48 2.797-6.288 6.264-6.288zm0 9.881a3.575 3.575 0 0 0 3.579-3.593c0-1.965-1.622-3.593-3.58-3.593-1.957 0-3.578 1.628-3.578 3.593s1.621 3.593 3.579 3.593z" fill="#0000A0"/></svg>
